!!!COM:	Du Fay, Guillaume
!!!CDT:	~1397/08/05/-1474/11/27
!!!OPR:	Missa Ave regina celorum
!!!ONM:	1
!!!OTL:	Kyrie
!!!AGN:	Mass; Kyrie
!!!SCT:	Duf1002a
!!!SCA:	Duf1002a
!!!voices:	4
!!!voices-OPR:	4
**kern	**text	**kern	**text	**kern	**text	**kern	**text
*staff4	*staff4	*staff3	*staff3	*staff2	*staff2	*staff1	*staff1
*Ivox	*	*Ivox	*	*Ivox	*	*Ivox	*
*I"Bassus	*	*I"Tenor	*	*I"Contratenor	*	*I"Cantus	*
*I'B	*	*I'T	*	*I'Ct	*	*I'Cn	*
*>[A,B,C,D,E,F,G,H]	*>[A,B,C,D,E,F,G,H]	*>[A,B,C,D,E,F,G,H]	*>[A,B,C,D,E,F,G,H]	*>[A,B,C,D,E,F,G,H]	*>[A,B,C,D,E,F,G,H]	*>[A,B,C,D,E,F,G,H]	*>[A,B,C,D,E,F,G,H]
*>A	*>A	*>A	*>A	*>A	*>A	*>A	*>A
*clefF4	*	*clefGv2	*	*clefGv2	*	*clefG2	*
*k[b-]	*	*k[b-]	*	*k[]	*	*k[]	*
*M3/1	*	*M3/1	*	*M3/1	*	*M3/1	*
*met(O)	*	*met(O)	*	*met(O)	*	*met(O)	*
!!section: Kyrie I
!!!OMD: Kyrie I
=1-	=1-	=1-	=1-	=1-	=1-	=1-	=1-
0F	A-	0.r	.	0f	Ky-	1.cc	Ky-
.	.	.	.	.	.	2b\	.
1F	.	.	.	1c	-ri-	1a	-ri-
=2	=2	=2	=2	=2	=2	=2	=2
1E-	.	0.r	.	1c	-e	1g	-e
1.D	.	.	.	2.d\	e-	2f/	e-
.	.	.	.	.	.	2.a/	.
.	.	.	.	4c\	.	.	.
.	.	.	.	[1A	-lei-	.	.
.	.	.	.	.	.	4g/	.
2C/	.	.	.	.	.	2e/	.
=3	=3	=3	=3	=3	=3	=3	=3
1D	.	0.r	.	1A]	.	1f	.
1.E-i	.	.	.	0G	-son,	1.g	-lei-
2C/	.	.	.	.	.	2eni/	.
=4	=4	=4	=4	=4	=4	=4	=4
0.C	-ve,	0c	A-	2r	.	1e	-son,
.	.	.	.	1g	Ky-	.	.
.	.	.	.	.	.	2r	.
.	.	.	.	2f\	.	2a/	Ky-
.	.	1c	.	1e	.	2g/	.
.	.	.	.	.	.	2e/	.
=5	=5	=5	=5	=5	=5	=5	=5
*k[]	*	*	*	*	*	*	*
0D	a-	1B-	.	2d\	.	2f/	.
.	.	.	.	1f	.	2d/	.
.	.	1.A	.	.	.	2f/	.
.	.	.	.	2e\	.	2g/	.
2D\	.	.	.	1d	-ri-	[1a	.
2Eni\	.	2G/	.	.	.	.	.
=6	=6	=6	=6	=6	=6	=6	=6
1F	.	1A	.	1c	-e	1a]	.
0G	.	1.B-	.	2.g\	e-	1d	-ri-
.	.	.	.	4f\	.	.	.
.	.	.	.	1d	.	[1g	-e
.	.	[2G/	.	.	.	.	.
=7	=7	=7	=7	=7	=7	=7	=7
1C	.	2G/]	.	1e	-lei-	2g/]	.
.	.	2A/	.	.	.	2cc\	e-
2E\	.	2G/	.	1c	.	2b\	.
2F\	.	1c	.	.	.	2a/	.
1D	.	.	.	1d 1f	.	4b/	-lei-
.	.	.	.	.	.	4a/	.
.	.	2Bni\	.	.	.	4g/	.
.	.	.	.	.	.	4f/	.
=8	=8	=8	=8	=8	=8	=8	=8
0.C	-ve,	0c	-ve,	0G 0g	.	0e	.
.	.	1c	re-	1A	.	2e/	-son,
.	.	.	.	.	.	2f/	.
=9	=9	=9	=9	=9	=9	=9	=9
1r	.	1d	-gi-	1G	-son,	0g	.
0C	re-	1.e	.	0c	.	.	.
.	.	.	.	.	.	1r	.
.	.	2d\	.	.	.	.	.
=10	=10	=10	=10	=10	=10	=10	=10
0.c	-gi-	[0.e	-na	1r	.	1.g	Ky-
.	.	.	.	[0g	Ky-	.	.
.	.	.	.	.	.	1.cc	.
=11	=11	=11	=11	=11	=11	=11	=11
0G	-na	1e]	.	0g]	.	1b	.
.	.	1d	ce-	.	.	2dd\	.
.	.	.	.	.	.	2cc\	.
1G	ce-	1e	.	1g	-ri-	2.b\	-ri-
.	.	.	.	.	.	4a/	.
=12	=12	=12	=12	=12	=12	=12	=12
1F	-lo-	1f	-lo-	1c	-e	1a	-e
1G	.	2d\	.	1B	.	1g	.
.	.	1e	.	.	.	.	.
2A\	.	.	.	1c	e-	1cc	e-
[2F\	.	2f\	.	.	.	.	.
=13	=13	=13	=13	=13	=13	=13	=13
2F\]	.	1d	.	1f	-lei-	1dd	-lei-
2D\	.	.	.	.	.	.	.
2E\	.	1c	.	2e\	.	2g/	.
2F\	.	.	.	2c\	.	1a	.
1D	.	1f	.	1d	.	.	.
.	.	.	.	.	.	2f/	.
=14	=14	=14	=14	=14	=14	=14	=14
1C	.	1e	.	1G	-son,	2g/	.
.	.	.	.	.	.	2cc\	.
0G	.	0d	.	2r	.	2dd\	.
.	.	.	.	1g	e-	2.b\	.
.	.	.	.	.	.	4cc\	.
.	.	.	.	2g\	-lei-	4b/	.
.	.	.	.	.	.	4a/	.
=15	=15	=15	=15	=15	=15	=15	=15
0.Cl	-rum.	0.cl	-rum.	2e\	.	0.ccl	-son.
.	.	.	.	2f\	.	.	.
.	.	.	.	0gl	-son.	.	.
!!LO:LB:i:g=z
=16||	=16||	=16||	=16||	=16||	=16||	=16||	=16||
*>B	*>B	*>B	*>B	*>B	*>B	*>B	*>B
*clefF4	*	*clefGv2	*	*clefGv2	*	*clefG2	*
*k[]	*	*k[b-]	*	*k[]	*	*k[]	*
*M3/1	*	*M3/1	*	*M3/1	*	*M3/1	*
*met(O)	*	*met(O)	*	*met(O)	*	*met(O)	*
!!section: Kyrie II
!!!OMD: Kyrie II
0.r	.	0c	A-	1g	Ky-	1cc	Ky-
.	.	.	.	2e\	.	2b\	-ri-
.	.	.	.	2f\	.	2.a/	-e
.	.	1B-	.	1d	-ri-	.	.
.	.	.	.	.	.	4g/	.
.	.	.	.	.	.	2g/	.
=17	=17	=17	=17	=17	=17	=17	=17
0.r	.	1A	.	1c	-e	4a/	.
.	.	.	.	.	.	2f/	.
.	.	.	.	.	.	4e/	.
.	.	2G/	.	2.d\	e-	2g/	.
.	.	1B-	.	.	.	2d/	e-
.	.	.	.	4G/	.	.	.
.	.	.	.	2d\	.	2.g/	-lei-
.	.	2c\	.	2e\	.	.	.
.	.	.	.	.	.	[4a/	.
=18	=18	=18	=18	=18	=18	=18	=18
0.r	.	1A	.	2.c\	-lei-	4a/]	.
.	.	.	.	.	.	4e/	.
.	.	.	.	.	.	2f#i/	.
.	.	.	.	4B\	.	.	.
.	.	0G	.	1d	-son,	2g/	-son,
.	.	.	.	.	.	2r	.
.	.	.	.	1g	e-	2b\	e-
.	.	.	.	.	.	2g/	.
=19	=19	=19	=19	=19	=19	=19	=19
0.r	.	1.A	.	1e	-lei-	2cc\	.
.	.	.	.	.	.	4b/	.
.	.	.	.	.	.	4.a/	.
.	.	.	.	1c	.	.	.
.	.	.	.	.	.	8g/	.
.	.	.	.	.	.	4f/	.
.	.	2c\	.	.	.	2e/	.
.	.	2Bni\	.	1G	-son,	2.d/	-lei-
.	.	2A/	.	.	.	.	.
.	.	.	.	.	.	4c/	.
=20	=20	=20	=20	=20	=20	=20	=20
0C	A-	0.c	-ve,	2e\	Ky-	1c	-son,
.	.	.	.	2f\	-ri-	.	.
.	.	.	.	1g	-e	1r	.
1A	-ve,	.	.	1e	.	1r	.
=21	=21	=21	=21	=21	=21	=21	=21
2.A\	do-	1r	.	2c\	.	1cc	Ky-
.	.	.	.	2e\	.	.	.
4G\	.	.	.	.	.	.	.
2F\	.	1r	.	2f\	.	2dd\	.
1E	.	.	.	1g	.	2.ee\	.
.	.	1c	do-	.	.	.	.
.	.	.	.	.	.	4dd\	.
2F\	.	.	.	2a\	e-	2cc\	.
=22	=22	=22	=22	=22	=22	=22	=22
1D	-mi-	1d	-mi-	1f	-lei-	2b\	.
.	.	.	.	.	.	2a/	-ri-
1C	-na	1e	.	1g	.	2.cc\	-e,
.	.	.	.	.	.	4b\	.
2r	.	1e	-na	1c	-son,	1g	.
[2c\	an-	.	.	.	.	.	.
=23	=23	=23	=23	=23	=23	=23	=23
2c\]	.	1e	an-	0.r	.	2r	.
2A\	.	.	.	.	.	2cc\	Ky-
2B\	.	1d	-ge-	.	.	2dd\	.
1G	.	.	.	.	.	1b	.
.	.	1e	.	.	.	.	.
2A\	-ge-	.	.	.	.	[2cc\	.
=24	=24	=24	=24	=24	=24	=24	=24
1F	-lo-	1f	-lo-	2.c\	Ky-	4cc\]	.
.	.	.	.	.	.	4b\	.
.	.	.	.	.	.	2a/	.
.	.	.	.	4d\	.	.	.
1c	.	2e\	.	2e\	.	2g/	.
.	.	2c\	.	2f\	-ri-	1cc	.
1G	.	1d	.	[1g	-e	.	.
.	.	.	.	.	.	2b\	-ri-
=25	=25	=25	=25	=25	=25	=25	=25
2.C/	-rum.	0c	-rum,	2g\]	.	2cc\	-e
.	.	.	.	1e	.	2r	.
4D\	.	.	.	.	.	.	.
2E\	.	.	.	.	.	2g/	e-
2F\	.	.	.	2c\	.	2a/	.
2E\	.	1c	an-	1e	.	2g/	.
2C/	.	.	.	.	.	[2e/	.
=26	=26	=26	=26	=26	=26	=26	=26
1r	.	2G/	-ge-	2g\	e-	2e/]	.
.	.	2.A/	.	2e\	.	2.c/	.
1C	.	.	.	2c\	.	.	.
.	.	4G/	.	.	.	4d/	.
.	.	2c\	.	2G/	.	2e/	.
1BB	.	1d	-lo-	2.B\	-lei-	2f/	-lei-
.	.	.	.	.	.	2g/	.
.	.	.	.	4G/	.	.	.
=27	=27	=27	=27	=27	=27	=27	=27
0.Cl	.	0.cl	-rum.	0.Gl	-son.	0.el	-son.
!!LO:LB:i:g=z
=28||	=28||	=28||	=28||	=28||	=28||	=28||	=28||
*>C	*>C	*>C	*>C	*>C	*>C	*>C	*>C
*clefF4	*	*clefGv2	*	*clefGv2	*	*clefG2	*
*k[]	*	*k[b-]	*	*k[]	*	*k[]	*
*M2/1	*	*M2/1	*	*M2/1	*	*M2/1	*
*met(C)	*	*met(C)	*	*met(C)	*	*met(C)	*
!!section: Christe I
!!!OMD: Christe I
0F	Sal-	0r	.	0r	.	0a	Chri-
=29.	=29	=29.	=29	=29.	=29	=29.	=29
1G	.	0r	.	0r	.	1g	.
[1A	.	.	.	.	.	1e	.
=30	=30	=30	=30	=30	=30	=30	=30
1A]	.	0r	.	0r	.	0f	-ste,
1B-i	.	.	.	.	.	.	.
=31.	=31	=31.	=31	=31.	=31	=31.	=31
0G	.	0r	.	0r	.	0g	.
=32	=32	=32	=32	=32	=32	=32	=32
0A	-ve,	0r	.	0c	Chri-	1e	Chri-
.	.	.	.	.	.	1f	.
=33.	=33	=33.	=33	=33.	=33	=33.	=33
1B-i	sal-	0r	.	1d	.	1g	.
1A	.	.	.	[1e	.	2a/	.
.	.	.	.	.	.	[2cc\	.
=34	=34	=34	=34	=34	=34	=34	=34
1c	.	0r	.	1e]	.	2cc\]	.
.	.	.	.	.	.	2b\	.
1d	.	.	.	1f	.	[1a	.
=35.	=35	=35.	=35	=35.	=35	=35.	=35
0B-i	.	0r	.	0d	.	1a]	.
.	.	.	.	.	.	2g/	.
.	.	.	.	.	.	2f/	.
=36	=36	=36	=36	=36	=36	=36	=36
0A	-ve,	0c	Sal-	1e	-ste	0a	-ste
.	.	.	.	1f	.	.	.
=37.	=37	=37.	=37	=37.	=37	=37.	=37
0G	sal-	1d	.	0g	.	1r	.
.	.	[1e	.	.	.	1b	e-
=38	=38	=38	=38	=38	=38	=38	=38
1A	.	1e]	.	0c	e-	2cc\	.
.	.	.	.	.	.	2a/	.
[1F	.	1f	.	.	.	2b\	.
.	.	.	.	.	.	[2a/	.
=39.	=39	=39.	=39	=39.	=39	=39.	=39
2F\]	.	0d	.	1A	-lei-	2a/]	.
2E\	.	.	.	.	.	2g/	.
1D	.	.	.	1B	.	2.f/	-lei-
.	.	.	.	.	.	4e/	.
=40	=40	=40	=40	=40	=40	=40	=40
[0C	-ve,	0e	-ve,	0c	-son,	1g	-son,
.	.	.	.	.	.	1r	.
=41.	=41	=41.	=41	=41.	=41	=41.	=41
0C]	.	1r	.	0e	Chri-	0cc	Chri-
.	.	[1g	ra-	.	.	.	.
=42	=42	=42	=42	=42	=42	=42	=42
0r	.	1g]	.	0d	.	1b	.
.	.	1f	.	.	.	[1a	.
=43.	=43	=43.	=43	=43.	=43	=43.	=43
0c	ra-	0e	.	1e	-ste	2a/]	.
.	.	.	.	.	.	2g/	.
.	.	.	.	1c	.	[1g	-ste
=44	=44	=44	=44	=44	=44	=44	=44
0G	.	0d	.	1d	.	1g]	.
.	.	.	.	1g	e-	1b	e-
=45.	=45	=45.	=45	=45.	=45	=45.	=45
0A	.	0c	-dix	2f#i\	.	1a	.
.	.	.	.	1f#i	-lei-	.	.
.	.	.	.	.	.	1cc	.
.	.	.	.	2e\	.	.	.
=46	=46	=46	=46	=46	=46	=46	=46
[0G	-dix	1r	.	0g	-son,	1dd	-lei-
.	.	[1d	san-	.	.	[1b	.
=47.	=47	=47.	=47	=47.	=47	=47.	=47
0G]	.	1d]	.	0d	.	2b\]	.
.	.	.	.	.	.	2g/	.
.	.	1B-	.	.	.	[1g	.
=48	=48	=48	=48	=48	=48	=48	=48
0C	san-	1c	.	1r	.	2g/]	.
.	.	.	.	.	.	2a/	.
.	.	1e-i	.	[1g	Chri-	2g/	.
.	.	.	.	.	.	2cc\	.
=49.	=49	=49.	=49	=49.	=49	=49.	=49
0G	.	0d	.	2g\]	.	2dd\	.
.	.	.	.	2f\	.	1b	.
.	.	.	.	1g	.	.	.
.	.	.	.	.	.	2a/	.
=50	=50	=50	=50	=50	=50	=50	=50
0C	-cta,	[0c	-cta,	1e	.	0cc	-son,
.	.	.	.	1g	.	.	.
=51.	=51	=51.	=51	=51.	=51	=51.	=51
[0F	.	0c]	.	2a\	.	0r	.
.	.	.	.	2.f\	.	.	.
.	.	.	.	4e\	.	.	.
.	.	.	.	2d\	.	.	.
=52	=52	=52	=52	=52	=52	=52	=52
0F]	.	0r	.	0c	-ste,	0a	Chri-
=53.	=53	=53.	=53	=53.	=53	=53.	=53
0r	.	0c	ex	0e	.	1g	.
.	.	.	.	.	.	[1cc	.
=54	=54	=54	=54	=54	=54	=54	=54
0F	ex	1.A	.	1r	.	1cc]	.
.	.	.	.	[1f	Chri-	[1a	.
.	.	2B-\	.	.	.	.	.
=55.	=55	=55.	=55	=55.	=55	=55.	=55
1A	.	1c	.	1f]	.	1a]	.
[1G	.	1d	.	[1g	.	[1b	.
=56	=56	=56	=56	=56	=56	=56	=56
1G]	.	1G	.	1g]	.	2b\]	.
.	.	.	.	.	.	2g/	.
1G	.	1B-	.	[1d	.	[1g	.
=57.	=57	=57.	=57	=57.	=57	=57.	=57
0D	.	0A	.	1d]	.	2g/]	.
.	.	.	.	.	.	2f#i/	.
.	.	.	.	1d	.	2f#i/	.
.	.	.	.	.	.	2e/	.
=58	=58	=58	=58	=58	=58	=58	=58
0E	qua	0G	qua	1.B	-ste	0g	-ste
.	.	.	.	2A/	.	.	.
=59.	=59	=59.	=59	=59.	=59	=59.	=59
[0C	mun-	1r	.	0c	e-	0e	.
.	.	[1G	mun-	.	.	.	.
=60	=60	=60	=60	=60	=60	=60	=60
1C]	.	1G]	.	1e	-lei-	0c	.
[1F	.	[1A	.	1c	.	.	.
=61.	=61	=61.	=61	=61.	=61	=61.	=61
2F\]	.	1A]	.	0d	-son,	1r	.
2E\	.	.	.	.	.	.	.
1D	.	1Bni	.	.	.	1f	e-
=62	=62	=62	=62	=62	=62	=62	=62
[0C	-do	1.c	.	[0G	.	1e	-lei-
.	.	.	.	.	.	[1g	.
.	.	2Bni\	.	.	.	.	.
=63.	=63	=63.	=63	=63.	=63	=63.	=63
0C_	.	1c	.	0G]	.	1g]	.
.	.	1G	.	.	.	[1c	-son,
=64	=64	=64	=64	=64	=64	=64	=64
0C]	.	0c	.	0r	.	1c]	.
.	.	.	.	.	.	2g/	Chri-
.	.	.	.	.	.	2a/	.
=65.	=65	=65.	=65	=65.	=65	=65.	=65
0r	.	0d	.	0G	Chri-	2g/	.
.	.	.	.	.	.	1b	.
.	.	.	.	.	.	2cc\	.
=66	=66	=66	=66	=66	=66	=66	=66
0F	lux	[0c	-do	0A	-ste	2a/	.
.	.	.	.	.	.	2b\	.
.	.	.	.	.	.	[1cc	-ste
=67.	=67	=67.	=67	=67.	=67	=67.	=67
0A	.	0c]	.	0F	.	1cc]	.
.	.	.	.	.	.	1cc	e-
=68	=68	=68	=68	=68	=68	=68	=68
1G	est	0d	lux	1r	.	1b	-lei-
1F	.	.	.	1A	e-	[1a	.
=69.	=69	=69.	=69	=69.	=69	=69.	=69
0E	.	0e	.	2B\	.	2a/]	.
.	.	.	.	1c	.	2g/	.
.	.	.	.	.	.	1g	.
.	.	.	.	2B\	.	.	.
=70	=70	=70	=70	=70	=70	=70	=70
0D	.	0f	est	2d\	-lei-	2b\	.
.	.	.	.	2A/	.	2.a/	.
.	.	.	.	2B\	.	.	.
.	.	.	.	.	.	4g/	.
.	.	.	.	4A/	.	2f/	.
.	.	.	.	4B/	.	.	.
=71.	=71	=71.	=71	=71.	=71	=71.	=71
[0C	or-	1g	or-	0c	-son,	1e	.
.	.	[1e	.	.	.	1g	.
=72	=72	=72	=72	=72	=72	=72	=72
0C]	.	1e]	.	1g	e-	1c	.
.	.	1c	.	1e	.	[1cc	.
=73.	=73	=73.	=73	=73.	=73	=73.	=73
0G	.	0d	.	1d	.	1cc]	.
.	.	.	.	[1g	.	1b	.
=74	=74	=74	=74	=74	=74	=74	=74
[0Cl	-ta.	[0cl	-ta.	1g]	.	[0ccl	-son.
.	.	.	.	1g	.	.	.
=75.	=75	=75.	=75	=75.	=75	=75.	=75
0C_	.	0c_	.	1e	-lei-	0cc_	.
.	.	.	.	1f	.	.	.
=76	=76	=76	=76	=76	=76	=76	=76
0C]	.	0c]	.	0gl	-son.	0cc]	.
!!LO:LB:i:g=z
=77||	=77||	=77||	=77||	=77||	=77||	=77||	=77||
*>D	*>D	*>D	*>D	*>D	*>D	*>D	*>D
*clefF4	*	*clefGv2	*	*clefG2	*	*clefG2	*
*k[]	*	*k[b-]	*	*k[]	*	*k[]	*
*M2/1	*	*M2/1	*	*M2/1	*	*M2/1	*
*met(C)	*	*met(C)	*	*met(C)	*	*met(C)	*
!!section: Christe II
!!!OMD: Christe II
1.c	Chri-	0r	.	0r	.	1.c	Chri-
2B\	.	.	.	.	.	2d/	.
=78.	=78	=78	=78	=78.	=78	=78.	=78
!!LO:TX:Z=36:X:10:t=Longa fugat bino, terno brevis in diapason
!!LO:TX:Z=16:X:10:t=[Canon at the unison, then, at the triple meter, at the octave]
1c	.	0r	.	0r	.	1e	.
1d	.	.	.	.	.	1f	.
=79	=79	=79	=79	=79	=79	=79	=79
0e	-ste	0r	.	1.c	Chri-	[0g	-ste
.	.	.	.	2d/	.	.	.
=80.	=80	=80	=80	=80.	=80	=80.	=80
1c	.	0r	.	1e	.	1g]	.
1A	e-	.	.	1f	.	1a	e-
=81	=81	=81	=81	=81	=81	=81	=81
1B	-lei-	0r	.	[0g	-ste	1g	-lei-
2.c\	.	.	.	.	.	[1e	.
4B\	.	.	.	.	.	.	.
=82.	=82	=82	=82	=82.	=82	=82.	=82
2G\	.	0r	.	1g]	.	1e]	.
4F\	.	.	.	.	.	.	.
4E\	.	.	.	.	.	.	.
1D	.	.	.	1a	e-	1f	.
=83	=83	=83	=83	=83	=83	=83	=83
1E	-son,	0r	.	1g	-lei-	1.g	.
[1C	.	.	.	[1e	.	.	.
.	.	.	.	.	.	[2c/	.
=84.	=84	=84	=84	=84.	=84	=84.	=84
1C]	.	0r	.	1e]	.	2c/]	.
.	.	.	.	.	.	2e/	.
1r	.	.	.	1f	.	1d	.
=85	=85	=85	=85	=85	=85	=85	=85
2.C/	Chri-	0r	.	1.g	.	1c	-son,
4D\	.	.	.	.	.	.	.
2E\	.	.	.	.	.	2g/	Chri-
2F\	.	.	.	[2c/	.	2a/	.
=86.	=86	=86	=86	=86.	=86	=86.	=86
2E\	.	0r	.	2c/]	.	2g/	.
2C/	.	.	.	2e/	.	1cc	.
1G	.	.	.	1d	.	.	.
.	.	.	.	.	.	2b\	.
=87	=87	=87	=87	=87	=87	=87	=87
0C	-ste	0r	.	1c	-son,	2cc\	-ste
.	.	.	.	.	.	2r	.
.	.	.	.	2g/	Chri-	2.c/	e-
.	.	.	.	2a/	.	.	.
.	.	.	.	.	.	4d/	.
=88.	=88	=88	=88	=88.	=88	=88.	=88
1r	.	0r	.	2g/	.	2e/	.
.	.	.	.	1cc	.	2f/	.
1G	e-	.	.	.	.	1d	.
.	.	.	.	2b\	.	.	.
=89	=89	=89	=89	=89	=89	=89	=89
2.A\	.	0r	.	2cc\	-ste	2c/	.
.	.	.	.	2r	.	1e	.
4B\	.	.	.	.	.	.	.
2c\	.	.	.	2.c/	e-	.	.
2F\	.	.	.	.	.	2f/	.
.	.	.	.	4d/	.	.	.
=90.	=90	=90	=90	=90.	=90	=90.	=90
4G\	-lei-	0r	.	2e/	.	2e/	-lei-
4A\	.	.	.	.	.	.	.
2F\	.	.	.	2f/	.	4d/	.
.	.	.	.	.	.	4c/	.
1G	.	.	.	1d	.	1B	.
=91	=91	=91	=91	=91	=91	=91	=91
1C	-son,	0r	.	2c/	.	0c	-son,
.	.	.	.	1e	.	.	.
2A\	e-	.	.	.	.	.	.
2F\	.	.	.	2f/	.	.	.
=92.	=92	=92	=92	=92.	=92	=92.	=92
2G\	-lei-	0r	.	2e/	-lei-	0r	.
2E\	.	.	.	4d/	.	.	.
.	.	.	.	4c/	.	.	.
1D	.	.	.	1B	.	.	.
=93	=93	=93	=93	=93	=93	=93	=93
1C	-son,	0r	.	0c	-son,	0g	Chri-
1r	.	.	.	.	.	.	.
=94.	=94	=94	=94	=94.	=94	=94.	=94
0F	Chri-	0r	.	0r	.	0a	.
=95	=95	=95	=95	=95	=95	=95	=95
1E	.	0r	.	0g	Chri-	0b	-ste
1G	.	.	.	.	.	.	.
=96.	=96	=96	=96	=96.	=96	=96.	=96
1F	.	0r	.	0a	.	0cc	e-
1A	.	.	.	.	.	.	.
=97	=97	=97	=97	=97	=97	=97	=97
0G	-ste,	0r	.	0b	-ste	1dd	-lei-
.	.	.	.	.	.	1b	.
=98.	=98	=98	=98	=98.	=98	=98.	=98
0F	.	0r	.	0cc	e-	0a	.
=99	=99	=99	=99	=99	=99	=99	=99
1r	.	0r	.	1dd	-lei-	0g	-son,
1G	Chri-	.	.	1b	.	.	.
=100.	=100	=100	=100	=100.	=100	=100.	=100
2A\	-ste	0r	.	0a	.	1r	.
1F	.	.	.	.	.	.	.
.	.	.	.	.	.	1f	e-
2D\	.	.	.	.	.	.	.
=101	=101	=101	=101	=101	=101	=101	=101
1.E	.	0r	.	0g	-son,	1g	-lei-
.	.	.	.	.	.	1e	.
4D/	.	.	.	.	.	.	.
4C/	.	.	.	.	.	.	.
=102.	=102	=102	=102	=102.	=102	=102.	=102
1BB	.	0r	.	1r	.	0d	.
1D	e-	.	.	1f	e-	.	.
=103	=103	=103	=103	=103	=103	=103	=103
1E	-lei-	0r	.	1g	-lei-	0c	-son,
1C	.	.	.	1e	.	.	.
=104.	=104	=104	=104	=104.	=104	=104.	=104
0BB	.	0r	.	0d	.	0r	.
=105	=105	=105	=105	=105	=105	=105	=105
*	*	*	*	*	*	*M3/1	*
*	*	*	*	*	*	*met(3)	*
0C	-son,	0r	.	0c	-son,	3%4cc	Chri-
.	.	.	.	.	.	3%2b	.
=106.	=106	=106	=106	=106.	=106	=106.	=106
*	*	*	*	*M3/1	*	*	*
*	*	*	*	*met(3)	*	*	*
0r	.	0r	.	3%4c	Chri-	3%2a	-ste
.	.	.	.	.	.	3%4g	.
.	.	.	.	3%2B	.	.	.
=107	=107	=107	=107	=107	=107	=107	=107
*M3/1	*	*	*	*	*	*	*
*met(3)	*	*	*	*	*	*	*
1c	Chri-	0.r	.	1A	-ste	1a	e-
1d	.	.	.	0G	.	1b	.
1B	.	.	.	.	.	1g	.
=108.	=108	=108	=108	=108.	=108	=108.	=108
1A	-ste	0.r	.	1A	e-	1cc	.
0G	.	.	.	1B	.	0dd	.
.	.	.	.	1G	.	.	.
=109	=109	=109	=109	=109	=109	=109	=109
1A	e-	0.r	.	1c	.	1cc	.
0D	.	.	.	0d	.	1a	.
.	.	.	.	.	.	1b	.
=110.	=110	=110	=110	=110.	=110	=110.	=110
1.A	.	0.r	.	1c	.	0cc	.
.	.	.	.	1A	.	.	.
2F\	.	.	.	.	.	.	.
1G	.	.	.	1B	.	1b	.
=111	=111	=111	=111	=111	=111	=111	=111
1E	.	0.r	.	0c	.	1g	.
1F	.	.	.	.	.	1.a	-lei-
[1G	-lei-	.	.	1B	.	.	.
.	.	.	.	.	.	2g/	.
=112.	=112	=112	=112	=112.	=112	=112.	=112
1G]	.	0.r	.	1G	.	0g	.
0D	.	.	.	1.A	-lei-	.	.
.	.	.	.	.	.	1f#i	.
.	.	.	.	2G/	.	.	.
=113	=113	=113	=113	=113	=113	=113	=113
0.dl	-son.	0.r	.	0.Gl	-son.	0.gl	-son.
!!LO:LB:i:g=z
=114||	=114||	=114||	=114||	=114||	=114||	=114||	=114||
*>E	*>E	*>E	*>E	*>E	*>E	*>E	*>E
*clefF4	*	*clefGv2	*	*clefGv2	*	*clefG2	*
*k[]	*	*k[b-]	*	*k[]	*	*k[]	*
*M2/1	*	*M2/1	*	*M3/1	*	*M2/1	*
*met(C)	*	*met(C)	*	*met(C)	*	*met(C)	*
!!section: Christe III
!!!OMD: Christe III
!LO:TX:Z=26:X=-40:t=Concordans sine fuga	!	!	!	!	!	!	!
1.c	Chri-	0r	.	0r	.	1.c	Chri-
2B\	.	.	.	.	.	2d/	.
=115.	=115	=115	=115	=115	=115	=115.	=115
1c	.	0r	.	0r	.	1e	.
1d	.	.	.	.	.	1f	.
=116	=116	=116	=116	=116	=116	=116	=116
1.G	-ste	0r	.	0r	.	[0g	-ste
[2E\	e-	.	.	.	.	.	.
=117.	=117	=117	=117	=117	=117	=117.	=117
2E\]	.	0r	.	0r	.	1g]	.
2G\	.	.	.	.	.	.	.
1F	.	.	.	.	.	1a	e-
=118	=118	=118	=118	=118	=118	=118	=118
1G	.	0r	.	0r	.	1g	-lei-
2A\	.	.	.	.	.	[1e	.
[2c\	.	.	.	.	.	.	.
=119.	=119	=119	=119	=119	=119	=119.	=119
2c\]	.	0r	.	0r	.	1e]	.
2B\	.	.	.	.	.	.	.
1A	.	.	.	.	.	1f	.
=120	=120	=120	=120	=120	=120	=120	=120
1G	.	0r	.	0r	.	1.g	.
1c	.	.	.	.	.	.	.
.	.	.	.	.	.	[2c/	.
=121.	=121	=121	=121	=121	=121	=121.	=121
2A\	-lei-	0r	.	0r	.	2c/]	.
2c\	.	.	.	.	.	2e/	.
2.B\	.	.	.	.	.	1d	.
4A\	.	.	.	.	.	.	.
=122	=122	=122	=122	=122	=122	=122	=122
1c	-son,	0r	.	0r	.	1c	-son,
1r	.	.	.	.	.	2g/	Chri-
.	.	.	.	.	.	2a/	.
=123.	=123	=123	=123	=123	=123	=123.	=123
1e	Chri-	0r	.	0r	.	2g/	.
.	.	.	.	.	.	1cc	.
1d	.	.	.	.	.	.	.
.	.	.	.	.	.	2b\	.
=124	=124	=124	=124	=124	=124	=124	=124
2e\	-ste	0r	.	0r	.	2cc\	-ste
2c\	.	.	.	.	.	2r	.
2r	.	.	.	.	.	2.c/	e-
[2C/	e-	.	.	.	.	.	.
.	.	.	.	.	.	4d/	.
=125.	=125	=125	=125	=125	=125	=125.	=125
2C/]	.	0r	.	0r	.	2e/	.
2D\	.	.	.	.	.	2f/	.
1BB	.	.	.	.	.	1d	.
=126	=126	=126	=126	=126	=126	=126	=126
1.C	-lei-	0r	.	0r	.	2c/	.
.	.	.	.	.	.	1e	.
2BB/	.	.	.	.	.	2f/	.
=127.	=127	=127	=127	=127	=127	=127.	=127
2C/	.	0r	.	0r	.	2e/	-lei-
2E\	.	.	.	.	.	4d/	.
.	.	.	.	.	.	4c/	.
1D	.	.	.	.	.	1B	.
=128	=128	=128	=128	=128	=128	=128	=128
[0C	-son,	0r	.	0r	.	0c	-son,
=129.	=129	=129	=129	=129	=129	=129.	=129
0C]	.	0r	.	0r	.	0r	.
=130	=130	=130	=130	=130	=130	=130	=130
0r	.	0r	.	0r	.	0g	Chri-
=131.	=131	=131	=131	=131	=131	=131.	=131
1c	Chri-	0r	.	0r	.	0a	.
2A\	.	.	.	.	.	.	.
2c\	.	.	.	.	.	.	.
=132	=132	=132	=132	=132	=132	=132	=132
2B\	-ste	0r	.	0r	.	0b	-ste
1.d	.	.	.	.	.	.	.
=133.	=133	=133	=133	=133	=133	=133.	=133
2e\	.	0r	.	0r	.	0cc	e-
2.c\	.	.	.	.	.	.	.
4B\	.	.	.	.	.	.	.
2A\	.	.	.	.	.	.	.
=134	=134	=134	=134	=134	=134	=134	=134
0G	.	0r	.	0r	.	1dd	-lei-
.	.	.	.	.	.	1b	.
=135.	=135	=135	=135	=135	=135	=135.	=135
1r	.	0r	.	0r	.	0a	.
1F	e-	.	.	.	.	.	.
=136	=136	=136	=136	=136	=136	=136	=136
1G	.	0r	.	0r	.	0g	-son,
1E	.	.	.	.	.	.	.
=137.	=137	=137	=137	=137	=137	=137.	=137
0D	.	0r	.	0r	.	1r	.
.	.	.	.	.	.	1f	e-
=138	=138	=138	=138	=138	=138	=138	=138
0C	.	0r	.	0r	.	1g	-lei-
.	.	.	.	.	.	1e	.
=139.	=139	=139	=139	=139	=139	=139.	=139
0BB	-lei-	0r	.	0r	.	0d	.
=140	=140	=140	=140	=140	=140	=140	=140
[0C	-son,	0r	.	0r	.	0c	-son,
=141.	=141	=141	=141	=141	=141	=141.	=141
0C]	.	0r	.	0r	.	0r	.
=142	=142	=142	=142	=142	=142	=142	=142
0r	.	0r	.	0r	.	3%4cc	Chri-
.	.	.	.	.	.	3%2b	.
=143.	=143	=143	=143	=143	=143	=143.	=143
*M3/1	*	*	*	*M3/1	*	*M3/1	*
*met(O)	*	*	*	*met(O)	*	*met(O)	*
!!primary-mensuration: met(O)
0c	Chri-	0.r	.	0.r	.	1a	-ste
.	.	.	.	.	.	0g	.
1B	.	.	.	.	.	.	.
=144	=144	=144	=144	=144	=144	=144	=144
1A	-ste	0.r	.	0.r	.	1a	e-
0G	.	.	.	.	.	1b	.
.	.	.	.	.	.	1g	.
=145.	=145	=145	=145	=145	=145	=145.	=145
1A	e-	0.r	.	0.r	.	1cc	.
1B	.	.	.	.	.	0dd	.
1G	.	.	.	.	.	.	.
=146	=146	=146	=146	=146	=146	=146	=146
1c	.	0.r	.	0.r	.	1cc	.
0d	.	.	.	.	.	1a	.
.	.	.	.	.	.	1b	.
=147.	=147	=147	=147	=147	=147	=147.	=147
1c	.	0.r	.	0.r	.	0cc	.
1A	.	.	.	.	.	.	.
1B	.	.	.	.	.	1b	.
=148	=148	=148	=148	=148	=148	=148	=148
0c	.	0.r	.	0.r	.	1g	.
.	.	.	.	.	.	1.a	-lei-
1B	.	.	.	.	.	.	.
.	.	.	.	.	.	2g/	.
=149.	=149	=149	=149	=149	=149	=149.	=149
1G	.	0.r	.	0.r	.	0g	.
0A	-lei-	.	.	.	.	.	.
.	.	.	.	.	.	1f#i	.
=150	=150	=150	=150	=150	=150	=150	=150
0.Gl	-son.	0.r	.	0.r	.	0.gl	-son.
!!LO:LB:i:g=z
=151||	=151||	=151||	=151||	=151||	=151||	=151||	=151||
*>F	*>F	*>F	*>F	*>F	*>F	*>F	*>F
*clefF4	*	*clefGv2	*	*clefGv2	*	*clefG2	*
*k[]	*	*k[b-]	*	*k[]	*	*k[]	*
*M3/1	*	*M3/1	*	*M3/1	*	*M3/1	*
*met(O)	*	*met(O)	*	*met(O)	*	*met(O)	*
!!section: Kyrie III
!!!OMD: Kyrie III
0C	Gau-	0.r	.	0.c	Ky-	1.cc	Ky-
.	.	.	.	.	.	2b\	.
1F	.	.	.	.	.	1a	.
=152	=152	=152	=152	=152	=152	=152	=152
1E	.	0.r	.	1e	.	1g	.
0D	.	.	.	1.f	.	2a/	.
.	.	.	.	.	.	1a	-ri-
.	.	.	.	2e\	-ri-	4g/	.
.	.	.	.	.	.	4f/	.
=153	=153	=153	=153	=153	=153	=153	=153
0C	-de,	0.c	Gau-	0g	-e	1.e	-e,
.	.	.	.	.	.	2f/	.
1c	gau-	.	.	1e	e-	1g	.
=154	=154	=154	=154	=154	=154	=154	=154
1A	.	1e	.	1c	.	1cc	e-
0D	-de,	1.f	.	0d	-lei-	2b\	-lei-
.	.	.	.	.	.	1a	.
.	.	2e\	.	.	.	2g/	.
=155	=155	=155	=155	=155	=155	=155	=155
1r	.	0.g	-de,	0.G	-son,	0b	-son,
2G\	glo-	.	.	.	.	.	.
2.E\	.	.	.	.	.	.	.
.	.	.	.	.	.	1r	.
4F\	.	.	.	.	.	.	.
2G\	.	.	.	.	.	.	.
=156	=156	=156	=156	=156	=156	=156	=156
0D	.	0f	glo-	0d	Ky-	1.a	e-
.	.	.	.	.	.	2b\	.
1C	.	1e	.	1e	-ri-	1cc	.
=157	=157	=157	=157	=157	=157	=157	=157
1BB	-ri-	1d	-ri-	1f	-e,	1dd	.
0C	.	0c	.	1e	.	1.ee	-lei-
.	.	.	.	[1g	.	.	.
.	.	.	.	.	.	2cc\	.
=158	=158	=158	=158	=158	=158	=158	=158
1C	-o-	1e	-o-	0.g]	.	1.cc	.
0G	.	0d	.	.	.	.	.
.	.	.	.	.	.	2b\	.
.	.	.	.	.	.	2b\	.
.	.	.	.	.	.	2a/	.
=159	=159	=159	=159	=159	=159	=159	=159
0C	-sa,	0c	-sa,	2r	.	2cc\	-son,
.	.	.	.	1e	Ky-	2r	.
.	.	.	.	.	.	2g/	Ky-
.	.	.	.	2f\	.	2a/	.
1C	su-	1c	su-	1g	.	2g/	.
.	.	.	.	.	.	[2cc\	.
=160	=160	=160	=160	=160	=160	=160	=160
1F	.	1A	.	1f	.	2cc\]	.
.	.	.	.	.	.	2.a/	.
1G	.	2B-\	.	0d	-ri-	.	.
.	.	.	.	.	.	4g/	.
.	.	2G/	.	.	.	2g/	.
1D	.	1A	.	.	.	2.f#i/	-ri-
.	.	.	.	.	.	4e/	.
=161	=161	=161	=161	=161	=161	=161	=161
0d	-per	0.G	-per	1.B	-e	2g/	-e
.	.	.	.	.	.	2r	.
.	.	.	.	.	.	2d/	e-
.	.	.	.	2c\	.	1g	-lei-
1B	.	.	.	1d	e-	.	.
.	.	.	.	.	.	2a/	.
=162	=162	=162	=162	=162	=162	=162	=162
1G	.	1r	.	2g\	-lei-	2b\	.
.	.	.	.	2f\	.	2cc\	.
1r	.	0G	om-	1d	.	1dd	.
1E	om-	.	.	1e	-son,	1g	-son,
=163	=163	=163	=163	=163	=163	=163	=163
2F\	.	1A	.	2c\	e-	0.r	.
1D	.	.	.	1d	.	.	.
.	.	2Bni\	.	.	.	.	.
2E\	.	1c	.	2G/	.	.	.
2F\	.	.	.	2A/	.	.	.
2G\	.	2Bni\	.	2B\	.	.	.
=164	=164	=164	=164	=164	=164	=164	=164
2C/	.	2c\	.	2G/	.	0.r	.
1F	.	2.d\	.	2.A/	-lei-	.	.
.	.	4c\	.	4G/	.	.	.
2E\	.	1c	.	1G	.	.	.
1D	.	.	.	.	.	.	.
.	.	2Bni\	.	2F/	.	.	.
=165	=165	=165	=165	=165	=165	=165	=165
1C	-nes	0c	-nes	1G	-son,	1e	Ky-
2r	.	.	.	2A/	.	2f/	.
1E	spe-	.	.	2G/	.	1g	.
.	.	1c	spe-	1c	.	.	.
2F\	.	.	.	.	.	[2a/	.
=166	=166	=166	=166	=166	=166	=166	=166
1D	-ci-	1d	-ci-	1r	.	2a/]	.
.	.	.	.	.	.	2b\	-ri-
0C	-o-	1.e	.	1r	.	2.cc\	-e,
.	.	.	.	.	.	4b\	.
.	.	.	.	1c	Ky-	1g	.
.	.	2d\	.	.	.	.	.
=167	=167	=167	=167	=167	=167	=167	=167
1D	-sa,	1.f	-o-	2B\	-ri-	2r	.
.	.	.	.	2A/	.	2a/	Ky-
1BB	.	.	.	1d	-e	4b/	.
.	.	.	.	.	.	4a/	.
.	.	2d\	.	.	.	4g/	.
.	.	.	.	.	.	4f/	.
1C	.	1e	.	1G	.	2e/	.
.	.	.	.	.	.	2g/	.
=168	=168	=168	=168	=168	=168	=168	=168
2r	.	2c\	.	2c\	e-	2a/	.
2.G\	spe-	1d	.	2.B\	-lei-	2b\	-ri-
.	.	.	.	.	.	1g	-e
4A\	.	.	.	4c\	.	.	.
2B\	-ci-	2.G/	.	2d\	.	.	.
2c\	-o-	.	.	2e\	.	2r	.
.	.	4A/	.	.	.	.	.
2G\	.	2B-\	.	2d\	.	2dd\	e-
=169	=169	=169	=169	=169	=169	=169	=169
2r	.	2c\	.	2e\	-son,	2cc\	-lei-
2G\	.	2G/	.	2d\	.	2b\	.
2E\	.	2c\	.	2r	.	2g/	.
2C/	.	2e\	.	1g	e-	1cc	.
1G	.	1d	.	.	.	.	.
.	.	.	.	2g\	.	2b\	.
=170	=170	=170	=170	=170	=170	=170	=170
0.Cl	-sa.	0.cl	-sa.	1e	-lei-	0.ccl	-son.
.	.	.	.	1c	.	.	.
.	.	.	.	1gl	-son.	.	.
!!LO:LB:i:g=z
=171||	=171||	=171||	=171||	=171||	=171||	=171||	=171||
*>G	*>G	*>G	*>G	*>G	*>G	*>G	*>G
*clefF4	*	*clefGv2	*	*clefGv2	*	*clefG2	*
*k[]	*	*k[b-]	*	*k[]	*	*k[]	*
*M3/1	*	*M3/1	*	*M3/1	*	*M3/1	*
*met(O)	*	*met(O)	*	*met(O)	*	*met(O)	*
!!section: Kyrie IV
!!!OMD: Kyrie IV
0.G	Ky-	0.r	.	0g	Ky-	1g	Ky-
.	.	.	.	.	.	2a/	.
.	.	.	.	.	.	1b	.
.	.	.	.	1e	.	.	.
.	.	.	.	.	.	2cc\	.
=172	=172	=172	=172	=172	=172	=172	=172
1d	-ri-	0.r	.	1f	-ri-	1a	-ri-
1e	-e	.	.	0g	-e	2.g/	-e
.	.	.	.	.	.	4f/	.
1c	.	.	.	.	.	1e	.
=173	=173	=173	=173	=173	=173	=173	=173
2r	.	0.r	.	1a	.	1d	.
2d\	e-	.	.	.	.	.	.
1d	-lei-	.	.	1f	.	2r	.
.	.	.	.	.	.	2a/	e-
1G	-son,	.	.	1g	.	2g/	.
.	.	.	.	.	.	[2b\	.
=174	=174	=174	=174	=174	=174	=174	=174
2r	.	0.r	.	2e\	e-	4b\]	.
.	.	.	.	.	.	4cc\	.
2d\	Ky-	.	.	2f\	.	2dd\	.
2c\	.	.	.	2g\	.	1ee	.
1A	.	.	.	1c	.	.	.
.	.	.	.	.	.	2cc\	.
2A\	-ri-	.	.	2f\	.	4dd\	.
.	.	.	.	.	.	4cc\	.
=175	=175	=175	=175	=175	=175	=175	=175
1G	-e	0.r	.	4g\	-lei-	4b/	.
.	.	.	.	4f\	.	4a/	.
.	.	.	.	4e\	.	1g	.
.	.	.	.	4d\	.	.	.
2E\	e-	.	.	1c	.	.	.
2F\	.	.	.	.	.	2a/	.
2D\	.	.	.	2d\	.	4b/	.
.	.	.	.	.	.	4a/	.
2G\	.	.	.	4e\	.	4g/	.
.	.	.	.	4d\	.	4f/	.
=176	=176	=176	=176	=176	=176	=176	=176
2A\	.	0.r	.	4c\	.	2e/	.
.	.	.	.	4B\	.	.	.
2F\	.	.	.	2A/	.	2f/	.
1G	.	.	.	2B\	.	1d	.
.	.	.	.	1G	.	.	.
2E\	.	.	.	.	.	1g	.
[2C/	.	.	.	[2c\	.	.	.
=177	=177	=177	=177	=177	=177	=177	=177
1C]	.	0.r	.	2c\]	.	1e	.
.	.	.	.	1A	.	.	.
2D\	-lei-	.	.	.	.	2f/	-lei-
2C/	.	.	.	2c\	.	2e/	.
1G	.	.	.	2.B\	.	2.d/	.
.	.	.	.	4A/	.	4c/	.
=178	=178	=178	=178	=178	=178	=178	=178
0.C	-son,	0.r	.	0c	-son,	1c	-son,
.	.	.	.	.	.	1r	.
.	.	.	.	1r	.	1g	Ky-
=179	=179	=179	=179	=179	=179	=179	=179
0.r	.	0.r	.	1c	Ky-	2a/	.
.	.	.	.	.	.	1g	.
.	.	.	.	2B\	.	.	.
.	.	.	.	2c\	.	2cc\	.
.	.	.	.	1d	-ri-	2a/	-ri-
.	.	.	.	.	.	2b\	.
=180	=180	=180	=180	=180	=180	=180	=180
2C/	Ky-	0.r	.	2e\	-e	2.cc\	-e
2E\	.	.	.	1c	.	.	.
.	.	.	.	.	.	4b\	.
2F\	.	.	.	.	.	4a/	.
.	.	.	.	.	.	4g/	.
2G\	-ri-	.	.	2B\	.	2.g/	.
1C	-e	.	.	1c	.	.	.
.	.	.	.	.	.	4f/	.
.	.	.	.	.	.	2e/	.
=181	=181	=181	=181	=181	=181	=181	=181
1G	e-	0.r	.	2G/	e-	4d/	e-
.	.	.	.	.	.	4e/	.
.	.	.	.	2B\	.	4d/	.
.	.	.	.	.	.	4g/	.
2D\	.	.	.	2A/	.	4f/	.
.	.	.	.	.	.	4e/	.
2E\	.	.	.	2G/	.	1g	.
1C	.	.	.	2.c\	.	.	.
.	.	.	.	.	.	2a/	.
.	.	.	.	4d\	.	.	.
=182	=182	=182	=182	=182	=182	=182	=182
2C/	-lei-	0.r	.	2e\	.	2g/	.
2D\	.	.	.	2f\	.	2.dd\	-lei-
2BB/	.	.	.	2g\	-lei-	.	.
.	.	.	.	.	.	4cc\	.
2C/	.	.	.	2c\	.	1cc	.
1G	.	.	.	1d	.	.	.
.	.	.	.	.	.	2b\	.
=183	=183	=183	=183	=183	=183	=183	=183
0C	-son,	0.r	.	1c	-son,	2cc\	-son,
.	.	.	.	.	.	2r	.
.	.	.	.	1r	.	2.g/	Ky-
.	.	.	.	.	.	4a/	.
1r	.	.	.	2.G/	Ky-	2b-i\	.
.	.	.	.	.	.	2cc\	-ri-
.	.	.	.	4A/	.	.	.
=184	=184	=184	=184	=184	=184	=184	=184
2G\	Ky-	0.r	.	2B-\	.	2dd\	-e
2E\	-ri-	.	.	2c\	-ri-	2g/	e-
2D\	-e	.	.	2d\	-e	2f/	-lei-
2r	.	.	.	2G/	e-	2b-\	.
2.D\	e-	.	.	2F/	.	2a/	.
.	.	.	.	2B-i\	.	2dd\	.
4E\	.	.	.	.	.	.	.
=185	=185	=185	=185	=185	=185	=185	=185
1F	.	0.r	.	2A/	.	2cc\	.
.	.	.	.	2.d\	-lei-	4b-i\	.
.	.	.	.	.	.	2a/	.
1G	-lei-	.	.	.	.	.	.
.	.	.	.	4c\	.	4g/	.
.	.	.	.	2B-i\	.	1g	.
1D	.	.	.	1A	.	.	.
.	.	.	.	.	.	2f#i/	.
=186	=186	=186	=186	=186	=186	=186	=186
0.dl	-son.	0.r	.	0.Gl	-son.	0.gl	-son.
!!LO:LB:i:g=z
=187||	=187||	=187||	=187||	=187||	=187||	=187||	=187||
*>H	*>H	*>H	*>H	*>H	*>H	*>H	*>H
*clefF4	*	*clefGv2	*	*clefGv2	*	*clefG2	*
*k[]	*	*k[b-]	*	*k[]	*	*k[]	*
*M3/1	*	*M3/1	*	*M3/1	*	*M3/1	*
*met(O)	*	*met(O)	*	*met(O)	*	*met(O)	*
!!section: Kyrie V
!!!OMD: Kyrie V
1c	Va-	1.c	Va-	0.r	.	0cc	Ky-
2A\	.	.	.	.	.	.	.
2F\	.	2d\	.	.	.	.	.
1G	.	1e	.	.	.	1b	.
=188	=188	=188	=188	=188	=188	=188	=188
0F	.	1f	.	0.r	.	1a	.
.	.	1.d	.	.	.	2dd\	.
.	.	.	.	.	.	2cc\	.
1F	-le	.	.	.	.	2.a/	-ri-
.	.	2c\	.	.	.	.	.
.	.	.	.	.	.	4g/	.
=189	=189	=189	=189	=189	=189	=189	=189
0.C	val-	1e	-le,	0c	Ky-	1g	-e
.	.	2r	.	.	.	1e	.
.	.	1g	val-	.	.	.	.
.	.	.	.	1G	-ri-	1c	.
.	.	2f\	.	.	.	.	.
=190	=190	=190	=190	=190	=190	=190	=190
1C	-de	1e	-de	2.A/	-e	2r	.
.	.	.	.	.	.	2e/	e-
.	.	.	.	4G/	.	.	.
1BB	.	1d	.	1B	.	2f/	.
.	.	.	.	.	.	2g/	.
1C	.	[1c	de	1G	e-	1e	.
=191	=191	=191	=191	=191	=191	=191	=191
1.F	de-	2c\]	.	0A	-lei-	0a	-lei-
.	.	1d	.	.	.	.	.
2E\	.	2c\	.	.	.	.	.
1D	-co-	1d	co-	1B	.	2.f/	.
.	.	.	.	.	.	4e/	.
=192	=192	=192	=192	=192	=192	=192	=192
0C	-ra,	1e	-ra,	1c	-son,	0.g	-son,
.	.	1r	.	2r	.	.	.
.	.	.	.	2c\	Ky-	.	.
1E	et	1e	et	2B\	.	.	.
.	.	.	.	2G/	.	.	.
=193	=193	=193	=193	=193	=193	=193	=193
*	*	*k[]	*	*	*	*	*
1F	pro	1d	pro	1A	.	1r	.
0G	.	1.e	.	1.B	.	1r	.
.	.	.	.	.	.	1g	Ky-
.	.	2d\	.	2A/	-ri-	.	.
=194	=194	=194	=194	=194	=194	=194	=194
1F	no-	1f	no-	1c	-e,	1a	.
2G\	.	2e\	.	2e\	.	2g/	.
2A\	.	2c\	.	2f\	.	1cc	.
1G	.	1d	.	1g	.	.	.
.	.	.	.	.	.	2b\	-ri-
=195	=195	=195	=195	=195	=195	=195	=195
0C	-bis	0c	-bis	1r	.	0cc	-e
.	.	.	.	0g	e-	.	.
1G	sem-	1d	sem-	.	.	1b	e-
=196	=196	=196	=196	=196	=196	=196	=196
1A	-per	1c	-per	0.e	-lei-	1a	-lei-
0E	.	0Bni	.	.	.	0g	.
=197	=197	=197	=197	=197	=197	=197	=197
1F	Chri-	1A	Chri-	0c	.	1f	.
[0C	-stum	1G	.	.	.	0e	.
.	.	1c	-stum	1G	.	.	.
=198	=198	=198	=198	=198	=198	=198	=198
0C]	.	1r	.	1.G	.	2g/	.
.	.	.	.	.	.	2e/	.
.	.	1c	ex-	.	.	2g/	.
.	.	.	.	2A/	.	4f/	.
.	.	.	.	.	.	4e/	.
1BB	ex-	1d	.	1B	.	1d	.
=199	=199	=199	=199	=199	=199	=199	=199
1C	.	1e	.	1G	-son,	1c	-son,
0D	-o-	0f	-o-	0d	.	2r	.
.	.	.	.	.	.	1a	Ky-
.	.	.	.	.	.	2b\	.
=200	=200	=200	=200	=200	=200	=200	=200
1C	.	1e	.	0.r	.	1cc	-ri-
0G	.	1.d	.	.	.	2.b\	-e
.	.	.	.	.	.	4cc\	.
.	.	.	.	.	.	2dd\	.
.	.	[2g\	.	.	.	[2ee\	.
=201	=201	=201	=201	=201	=201	=201	=201
0c	.	2g\]	.	1e	e-	2ee\]	.
.	.	2f\	.	.	.	2dd\	e-
.	.	2g\	.	2c\	-lei-	2ee\	-lei-
.	.	2e\	.	1.g	.	1cc	.
1G	.	1d	.	.	.	.	.
.	.	.	.	.	.	2b\	.
=202	=202	=202	=202	=202	=202	=202	=202
0.Cl	-ra.	0.cl	-ra.	2e\	.	0.ccl	-son.
.	.	.	.	2f\	.	.	.
.	.	.	.	0gl	-son.	.	.
==	==	==	==	==	==	==	==
*-	*-	*-	*-	*-	*-	*-	*-
!!!RDF**kern: l=long note in original notation
!!!RDF**kern: i=editorial accidental
!!!ENC:	Alejandro Planchart
!!!END:	2014/07/17/
!!!EED:	Alejandro Planchart, Jesse Rodin
!!!EEV:	2014/07/17/
!!!ONB:	Translated from SCORE and edited on 2014/07/17/ by Craig Sapp
!!!SMS: Ed. J. Rodin based on edition by A. Planchart
!!muse2ps: T^@{OPR}^u^@{ONM}{. }@{OTL}^C^@{COM}\n@{SMS}^i2I150v85,85,85,130c140
